documentation/site/public/favicon-dark.svg

<svg fill="none" height="56" viewBox="0 0 37 56" width="37" xmlns="http://www.w3.org/2000/svg"><path d="m37 21.1656v32.2116c0 1.449-1.1594 2.6228-2.5905 2.6228h-31.81905c-1.43109 0-2.59045-1.1738-2.59045-2.6228v-13.4807c0-1.4489 1.15936-2.6228 2.59045-2.6228h13.31455c1.4311 0 2.5905-1.1738 2.5905-2.6228v-13.2927c0-1.4489-1.1594-2.6228-2.5905-2.6228h-13.31455c-1.43109 0-2.59045-1.1738-2.59045-2.6227v-13.48992c0-1.44895 1.15936-2.62278 2.59045-2.62278h13.31455c1.4311 0 2.5905 1.17383 2.5905 2.62278v13.29272c0 1.4489 1.1593 2.6228 2.5904 2.6228h13.3191c1.4311 0 2.5905 1.1738 2.5905 2.6228z" fill="#fff"/></svg>

<svg width="37" height="56" viewBox="0 0 37 56" fill="none" xmlns="http://www.w3.org/2000/svg">
<path d="M37 21.1656V53.3772C37 54.8262 35.8406 56 34.4095 56H2.59045C1.15936 56 0 54.8262 0 53.3772V39.8965C0 38.4476 1.15936 37.2737 2.59045 37.2737H15.905C17.3361 37.2737 18.4955 36.0999 18.4955 34.6509V21.3582C18.4955 19.9093 17.3361 18.7354 15.905 18.7354H2.59045C1.15936 18.7354 0 17.5616 0 16.1127V2.62278C0 1.17383 1.15936 0 2.59045 0H15.905C17.3361 0 18.4955 1.17383 18.4955 2.62278V15.9155C18.4955 17.3644 19.6548 18.5383 21.0859 18.5383H34.405C35.8361 18.5383 36.9955 19.7121 36.9955 21.1611L37 21.1656Z" fill="white"/>
</svg>
